!!!COM: Bindini, Ugo
!!!OTL: Ave verum corpus
**kern	**text	**kern	**text	**kern	**text	**kern	**text
*part4	*part4	*part3	*part3	*part2	*part2	*part1	*part1
*staff4	*staff4	*staff3	*staff3	*staff2	*staff2	*staff1	*staff1
*clefF4	*	*clefGv2	*	*clefGv2	*	*	*
*M4/2	*	*M4/2	*	*M4/2	*	*M4/2	*
*met(c|)	*	*met(c|)	*	*met(c|)	*	*met(c|)	*
=1	=1	=1	=1	=1	=1	=1	=1
0r	.	0r	.	1r	.	0cc	A-
.	.	.	.	[1f	A-	.	.
=2	=2	=2	=2	=2	=2	=2	=2
0r	.	0r	.	1f]	.	1cc	-ve
.	.	.	.	1f	ve	[1dd	ve-
=3	=3	=3	=3	=3	=3	=3	=3
0r	.	0r	.	0g	ve-	1dd]	.
.	.	.	.	.	.	[1ee	.
=4	=4	=4	=4	=4	=4	=4	=4
0r	.	0r	.	1.a	.	2ee]	.
.	.	.	.	.	.	2cc	.
.	.	.	.	.	.	[1cc	-rum
.	.	.	.	2f	.	.	.
=5	=5	=5	=5	=5	=5	=5	=5
0r	.	0r	.	1f	-rum	2cc]	.
.	.	.	.	.	.	2.dd	cor-
.	.	.	.	2b-	cor-	.	.
.	.	.	.	.	.	4cc	.
.	.	.	.	2a	.	[2ff	.
=6	=6	=6	=6	=6	=6	=6	=6
1r	.	0c	A-	1g	.	2ff]	.
.	.	.	.	.	.	2ee	.
[1F	A-	.	.	[1f	-pus	[1ff	-pus
!!linebreak:original
=7	=7	=7	=7	=7	=7	=7	=7
1F]	.	1c	-ve	1f]	.	1ff]	.
1F	-ve	[1d	ve-	1r	.	1r	.
=8	=8	=8	=8	=8	=8	=8	=8
0G	ve-	1d]	.	0r	.	0r	.
.	.	[1e	.	.	.	.	.
=9	=9	=9	=9	=9	=9	=9	=9
1.A	.	2e]	.	0r	.	0r	.
.	.	2c	.	.	.	.	.
.	.	[1c	-rum	.	.	.	.
2F	.	.	.	.	.	.	.
=10	=10	=10	=10	=10	=10	=10	=10
1F	-rum	2c]	.	0r	.	0r	.
.	.	2.d	cor-	.	.	.	.
2B-	cor-	.	.	.	.	.	.
.	.	4c	.	.	.	.	.
2A	.	[2f	.	.	.	.	.
=11	=11	=11	=11	=11	=11	=11	=11
1G	.	2f]	.	0r	.	1g	na-
.	.	2e	.	.	.	.	.
1F	-pus	1f	-pus	.	.	1a	-tum
=12	=12	=12	=12	=12	=12	=12	=12
0r	.	0r	.	1c	na-	2g	de
.	.	.	.	.	.	1a	Ma-
.	.	.	.	1d	-tum	.	.
.	.	.	.	.	.	4g	.
.	.	.	.	.	.	4f	.
=13	=13	=13	=13	=13	=13	=13	=13
0r	.	0r	.	2c	de	2e	-ri-
.	.	.	.	1d	Ma-	2d	-a
.	.	.	.	.	.	2.f	vir-
.	.	.	.	4c	.	.	.
.	.	.	.	4B-	.	4g	.
!!linebreak:original
=14	=14	=14	=14	=14	=14	=14	=14
0r	.	0r	.	2A	-ri-	2a	.
.	.	.	.	2G	-a	2.b-	.
.	.	.	.	2.B-	vir-	.	.
.	.	.	.	.	.	4a	.
.	.	.	.	.	.	[2f	.
.	.	.	.	4c	.	.	.
=15	=15	=15	=15	=15	=15	=15	=15
0r	.	0r	.	2d	.	4f]	.
.	.	.	.	.	.	4g	.
.	.	.	.	2c	.	1a	.
.	.	.	.	1B-	-gi-	.	.
.	.	.	.	.	.	2g	-gi-
=16	=16	=16	=16	=16	=16	=16	=16
0r	.	1r	.	0A	-ne	[0a	-ne
.	.	1c	na-	.	.	.	.
=17	=17	=17	=17	=17	=17	=17	=17
1r	.	1d	-tum	0r	.	0a]	.
1F	na-	2c	de	.	.	.	.
.	.	[2d	Ma-	.	.	.	.
=18	=18	=18	=18	=18	=18	=18	=18
1G	-tum	2d]	.	0r	.	0r	.
.	.	4c	.	.	.	.	.
.	.	4B-	.	.	.	.	.
2F	de	2A	-ri-	.	.	.	.
[2G	Ma-	2G	-a	.	.	.	.
=19	=19	=19	=19	=19	=19	=19	=19
2G]	.	2.d	vir-	0r	.	0r	.
4F	.	.	.	.	.	.	.
4E	.	4e	.	.	.	.	.
2D	-ri-	2f	.	.	.	.	.
2C	-a	[2e	.	.	.	.	.
=20	=20	=20	=20	=20	=20	=20	=20
2E	vir-	4e]	.	0r	.	0r	.
.	.	4d	.	.	.	.	.
2F	.	1c	.	.	.	.	.
1D	-gi-	.	.	.	.	.	.
.	.	2Bn	-gi-	.	.	.	.
!!linebreak:original
=21	=21	=21	=21	=21	=21	=21	=21
0C	-ne	0c	-ne	0r	.	1r	.
.	.	.	.	.	.	[1cc	ve-
=22	=22	=22	=22	=22	=22	=22	=22
1r	.	0r	.	1.f	ve-	2cc]	.
.	.	.	.	.	.	2b-	.
[1F	ve-	.	.	.	.	2a	.
.	.	.	.	2e	re	2g	re
=23	=23	=23	=23	=23	=23	=23	=23
1F]	.	0r	.	2d	pas-	2f	pas-
.	.	.	.	2c	.	2e	.
1G	.	.	.	1B-	.	1d	.
=24	=24	=24	=24	=24	=24	=24	=24
1A	.	1r	.	0A	-sum	2c	-sum
.	.	.	.	.	.	1cc	im-
[1F	-re	[1f	ve-	.	.	.	.
.	.	.	.	.	.	2b-	mo-
=25	=25	=25	=25	=25	=25	=25	=25
1F]	.	2f]	.	1r	.	2a	-la-
.	.	2e	-re	.	.	2g	.
[1B-	pas-	2d	pas-	[1d	im-	2f	.
.	.	2c	.	.	.	2e	.
=26	=26	=26	=26	=26	=26	=26	=26
2B-]	.	2B-	.	2d]	.	2d	.
2F	.	2A	.	2c	-mo-	1f	.
1G	.	1G	.	1B-	-la-	.	.
.	.	.	.	.	.	2e	.
=27	=27	=27	=27	=27	=27	=27	=27
1A	-sum	0F	-sum	0c	-tum,	[0f	-tum
[1c	im-	.	.	.	.	.	.
=28	=28	=28	=28	=28	=28	=28	=28
2c]	.	1.c	im-	1.F	im-	0f]	.
2B-	.	.	.	.	.	.	.
2A	.	.	.	.	.	.	.
2G	-mo-	2B-	mo-	2G	-mo-	.	.
=29	=29	=29	=29	=29	=29	=29	=29
2F	-la-	2A	-la-	2A	-la-	0r	.
2E	.	2G	.	1c	.	.	.
1D	.	1F	.	.	.	.	.
.	.	.	.	2Bn	.	.	.
!!pagebreak:original
=30	=30	=30	=30	=30	=30	=30	=30
[0C	-tum	0G	-tum	[0c	-tum	1r	.
.	.	.	.	.	.	[1g	in
=31	=31	=31	=31	=31	=31	=31	=31
0C]	.	0c	in	0c]	.	1g]	.
.	.	.	.	.	.	[1a	cru-
=32	=32	=32	=32	=32	=32	=32	=32
0r	.	0d	cru-	0r	.	1a]	.
.	.	.	.	.	.	1f	-ce
=33	=33	=33	=33	=33	=33	=33	=33
0r	.	1B-	-ce	0r	.	1f	pro
.	.	1B-	pro	.	.	[1g	ho-
=34	=34	=34	=34	=34	=34	=34	=34
0r	.	1.c	ho-	0r	.	2g]	.
.	.	.	.	.	.	2e	-mi-
.	.	.	.	.	.	[1e	-ne
.	.	2A	-mi-	.	.	.	.
=35	=35	=35	=35	=35	=35	=35	=35
1r	.	0A	-ne	0c	in	1e]	.
[1F	in	.	.	.	.	1r	.
=36	=36	=36	=36	=36	=36	=36	=36
1F]	.	0r	.	0d	cru-	0r	.
[1G	cru-	.	.	.	.	.	.
=37	=37	=37	=37	=37	=37	=37	=37
1G]	.	0r	.	1B-	-ce	1r	.
1E-X	-ce	.	.	1B-	pro	[1g	in
=38	=38	=38	=38	=38	=38	=38	=38
1E-X	pro	0c	in	1.c	ho-	1g]	.
[1F	ho-	.	.	.	.	[1a	cru-
.	.	.	.	2A	-mi-	.	.
=39	=39	=39	=39	=39	=39	=39	=39
2F]	.	0d	cru-	0A	-ne,	1a]	.
2D	-mi-	.	.	.	.	.	.
1D	-ne	.	.	.	.	1f	-ce
!!linebreak:original
=40	=40	=40	=40	=40	=40	=40	=40
1E-X	pro	1B-	-ce	1G	pro	1g	pro
1F	ho-	1A	pro	[1c	ho-	[1f	ho-
=41	=41	=41	=41	=41	=41	=41	=41
0C	-mi-	1G	ho-	1c]	.	2f]	.
.	.	.	.	.	.	4e	.
.	.	.	.	.	.	4d	.
.	.	1G	-mi-	1c	-mi-	1e	-mi-
=42	=42	=42	=42	=42	=42	=42	=42
[0F	-ne	[0F	-ne	[0c	-ne	[0f	-ne
=43	=43	=43	=43	=43	=43	=43	=43
0F]	.	0F]	.	0c]	.	0f]	.
=44||	=44||	=44||	=44||	=44||	=44||	=44||	=44||
0r	.	0r	.	1d	Cu-	0a	Cu-
.	.	.	.	[1f	.	.	.
=45	=45	=45	=45	=45	=45	=45	=45
0r	.	0r	.	2f]	.	0cc	-jus
.	.	.	.	4e	.	.	.
.	.	.	.	4d	.	.	.
.	.	.	.	1e	jus	.	.
=46	=46	=46	=46	=46	=46	=46	=46
0r	.	0r	.	1d	la-	0dd	la-
.	.	.	.	[1f	.	.	.
=47	=47	=47	=47	=47	=47	=47	=47
0r	.	0r	.	2f]	.	0cc	-tus
.	.	.	.	4e	.	.	.
.	.	.	.	4d	.	.	.
.	.	.	.	1e	-tus	.	.
=48	=48	=48	=48	=48	=48	=48	=48
0r	.	0r	.	1.d	per-	1b-	per-
.	.	.	.	.	.	[1a	fo-
.	.	.	.	2c	-fo-	.	.
!!linebreak:original
=49	=49	=49	=49	=49	=49	=49	=49
0r	.	0r	.	0B-	-ra	2a]	.
.	.	.	.	.	.	4g	.
.	.	.	.	.	.	4f	.
.	.	.	.	.	.	1g	-ra-
=50	=50	=50	=50	=50	=50	=50	=50
1D	Cu-	0A	Cu-	0A	tum	0a	-tum
[1F	.	.	.	.	.	.	.
=51	=51	=51	=51	=51	=51	=51	=51
2F]	.	0c	-jus	0r	.	0r	.
4E	.	.	.	.	.	.	.
4D	.	.	.	.	.	.	.
1E	jus	.	.	.	.	.	.
=52	=52	=52	=52	=52	=52	=52	=52
1D	la-	0d	la-	0r	.	0r	.
[1F	.	.	.	.	.	.	.
=53	=53	=53	=53	=53	=53	=53	=53
2F]	.	0c	-tus	0r	.	0r	.
4E	.	.	.	.	.	.	.
4D	.	.	.	.	.	.	.
1E	-tus	.	.	.	.	.	.
=54	=54	=54	=54	=54	=54	=54	=54
1.D	per-	1B-	per-	0f	flu-	0r	.
.	.	[1A	fo-	.	.	.	.
2D	-fo-	.	.	.	.	.	.
=55	=55	=55	=55	=55	=55	=55	=55
0C	-ra-	2A]	.	0e	.	0r	.
.	.	4G	-ra-	.	.	.	.
.	.	4F	.	.	.	.	.
.	.	1G	-tum	.	.	.	.
=56	=56	=56	=56	=56	=56	=56	=56
0BB-	-tum	2r	.	0d	-xit	0b-	flu-
.	.	2.B-	flu-	.	.	.	.
.	.	4c	.	.	.	.	.
.	.	4d	.	.	.	.	.
.	.	4e	.	.	.	.	.
!!linebreak:original
=57	=57	=57	=57	=57	=57	=57	=57
0r	.	1f	.	2r	.	0a	.
.	.	.	.	2.F	flu-	.	.
.	.	1f	-xit	.	.	.	.
.	.	.	.	4G	.	.	.
.	.	.	.	4A	.	.	.
.	.	.	.	4B-	.	.	.
=58	=58	=58	=58	=58	=58	=58	=58
2r	.	0e	a-	1c	.	0g	-xit-
2.C	flu-	.	.	.	.	.	.
.	.	.	.	1c	-xit	.	.
4D	.	.	.	.	.	.	.
4E	.	.	.	.	.	.	.
4F	.	.	.	.	.	.	.
=59	=59	=59	=59	=59	=59	=59	=59
1G	.	0d	-qua	0B-	a-	2r	.
.	.	.	.	.	.	2.d	flu-
1G	-xit	.	.	.	.	.	.
.	.	.	.	.	.	4e	.
.	.	.	.	.	.	4f	.
.	.	.	.	.	.	4g	.
=60	=60	=60	=60	=60	=60	=60	=60
0F	a-	2r	.	1A	-qua	1a	.
.	.	2A	et	.	.	.	.
.	.	2.c	san-	2r	.	1a	-xit
.	.	.	.	2A	et	.	.
.	.	4d	.	.	.	.	.
=61	=61	=61	=61	=61	=61	=61	=61
0E	-qua	1e	.	2c	san-	0g	a-
.	.	.	.	1d	.	.	.
.	.	1e	-gui-	.	.	.	.
.	.	.	.	2c#X	gui-	.	.
=62	=62	=62	=62	=62	=62	=62	=62
2r	.	1.f	-ne	1.d	-ne	0f	-qua
2D	et	.	.	.	.	.	.
2.F	san-	.	.	.	.	.	.
.	.	4e	.	4c	.	.	.
4G	.	4d	.	4B-	.	.	.
!!pagebreak:original
=63	=63	=63	=63	=63	=63	=63	=63
1A	.	0c	.	0A	.	2r	.
.	.	.	.	.	.	2c	et
1A	-gui-	.	.	.	.	2.e	san-
.	.	.	.	.	.	4f	.
=64	=64	=64	=64	=64	=64	=64	=64
0G	-ne	0B-	.	2r	.	1g	.
.	.	.	.	2B-	et	.	.
.	.	.	.	2.d	san-	1g	-gui-
.	.	.	.	4e	.	.	.
=65	=65	=65	=65	=65	=65	=65	=65
1.F	.	2r	.	1f	.	1.a	-ne
.	.	2F	et	.	.	.	.
.	.	2.A	san-	1F	.	.	.
4E	.	.	.	.	.	4g	.
4D	.	4B-	.	.	.	4f	.
=66	=66	=66	=66	=66	=66	=66	=66
1C	.	1c	.	2G	.	2.e	.
.	.	.	.	2.c	.	.	.
.	.	.	.	.	.	4f	.
1C	et	1c	-gui-	.	.	2g	et
.	.	.	.	4B-	.	.	.
.	.	.	.	4A	.	[2a	san-
.	.	.	.	4G	.	.	.
=67	=67	=67	=67	=67	=67	=67	=67
1D	san-	1A	-ne	1F	.	4a]	.
.	.	.	.	.	.	4g	.
.	.	.	.	.	.	1f	.
1C	-gui-	1r	.	1G	gui-	.	.
.	.	.	.	.	.	2e	-gui-
=68	=68	=68	=68	=68	=68	=68	=68
0c	-ne	2r	.	[0F	-ne	[0f	-ne
.	.	1A	E-	.	.	.	.
.	.	4G	-sto	.	.	.	.
.	.	4F	.	.	.	.	.
=69	=69	=69	=69	=69	=69	=69	=69
0r	.	1c	no-	0F]	.	0f]	.
.	.	1c	-bis	.	.	.	.
!!linebreak:original
=70	=70	=70	=70	=70	=70	=70	=70
0r	.	0d	præ-	0r	.	2r	.
.	.	.	.	.	.	1a	E-
.	.	.	.	.	.	4g	-sto
.	.	.	.	.	.	4f	.
=71	=71	=71	=71	=71	=71	=71	=71
0r	.	0c	-gus-	0r	.	1cc	no-
.	.	.	.	.	.	1cc	-bis
=72	=72	=72	=72	=72	=72	=72	=72
0r	.	0B-	-ta-	2r	.	0dd	præ-
.	.	.	.	1d	E-	.	.
.	.	.	.	4c	-sto	.	.
.	.	.	.	4B-	.	.	.
=73	=73	=73	=73	=73	=73	=73	=73
0r	.	0A	-tum	1f	no-	0cc	-gu-
.	.	.	.	1f	-bis	.	.
=74	=74	=74	=74	=74	=74	=74	=74
0r	.	2r	.	0g	præ-	0b-	-sta-
.	.	2.G	præ-	.	.	.	.
.	.	4A	.	.	.	.	.
.	.	4B-	.	.	.	.	.
.	.	4c	.	.	.	.	.
=75	=75	=75	=75	=75	=75	=75	=75
2r	.	1d	.	0f	-gu-	1a	-tum
1D	E-	.	.	.	.	.	.
.	.	1d	-gu-	.	.	2.f	præ-
4C	-sto	.	.	.	.	.	.
4BB-	.	.	.	.	.	4g	.
=76	=76	=76	=76	=76	=76	=76	=76
1F	no-	2c	-sta-	0f	-sta-	2a	.
.	.	1B-	.	.	.	2b-	.
1F	-bis	.	.	.	.	1cc	-gu-
.	.	2A	.	.	.	.	.
!!linebreak:original
=77	=77	=77	=77	=77	=77	=77	=77
1G	præ-	1B-	-tum	1.d	-tum	1b-	-sta-
2F	-gu-	1d	mor-	.	.	2a	.
[2G	-sta-	.	.	[2B-	mor-	[2b-	.
=78	=78	=78	=78	=78	=78	=78	=78
2G]	.	2.B-	.	4B-]	.	2b-]	.
.	.	.	.	4c	.	.	.
4F	.	.	.	1d	.	4a	.
4E	.	4c	.	.	.	4g	.
1D	-tum	1d	.	.	.	1f	-tum
.	.	.	.	[2A	-tis	.	.
=79	=79	=79	=79	=79	=79	=79	=79
1F	mor-	1A	-tis	2A]	.	1a	mor-
.	.	.	.	1c	mor-	.	.
2E	.	1c	mor-	.	.	2g	.
[2F	.	.	.	[2A	.	[2a	.
=80	=80	=80	=80	=80	=80	=80	=80
2F]	.	2.A	.	4A]	.	2a]	.
.	.	.	.	4B-	.	.	.
4E	.	.	.	1c	.	4g	.
4D	.	4B-	.	.	.	4f	.
1C	tis	1c	.	.	.	1e	-tis
.	.	.	.	[2G	-tis	.	.
=81	=81	=81	=81	=81	=81	=81	=81
1E-X	in	1G	-tis	2G]	.	1g	in
.	.	.	.	1B-	in	.	.
2D	ex-	1B-	in	.	.	2f	ex-
[2E-	-a-	.	.	[2G	ex-	[2g	-a-
=82	=82	=82	=82	=82	=82	=82	=82
2E-]	.	2.G	ex-	4G]	.	2g]	.
.	.	.	.	4A	.	.	.
4D	.	.	.	1B-	.	4f	.
4C	.	4A	.	.	.	4e-X	.
1BB-	.	1B-	.	.	.	1d	.
.	.	.	.	2F	.	.	.
=83	=83	=83	=83	=83	=83	=83	=83
2F	.	2A	-a-	2.A	-a-	2c	.
2D	.	4G	.	.	.	1f	.
.	.	4F	.	4B-	.	.	.
1C	-mi-	1G	-mi-	[1c	.	.	.
.	.	.	.	.	.	2e	-mi-
!!linebreak:original
=84	=84	=84	=84	=84	=84	=84	=84
[0F	-ne	0F	-ne	2c]	.	[0f	-ne
.	.	.	.	1d	.	.	.
.	.	.	.	4c	-mi-	.	.
.	.	.	.	4B-	.	.	.
=85	=85	=85	=85	=85	=85	=85	=85
0F]	.	1r	.	0A	-ne	0f]	.
.	.	1c	O	.	.	.	.
=86	=86	=86	=86	=86	=86	=86	=86
0r	.	1d	Je-	1r	.	1r	.
.	.	1d	-su	1d	O	1f	O
=87	=87	=87	=87	=87	=87	=87	=87
0r	.	1.e	dul-	1c	Je-	1g	Je-
.	.	.	.	1c	-su	1g	-su
.	.	4d	.	.	.	.	.
.	.	4c	.	.	.	.	.
=88	=88	=88	=88	=88	=88	=88	=88
1r	.	0c	-cis	0A	dul-	1.a	dul-
1F	O	.	.	.	.	.	.
.	.	.	.	.	.	4g	.
.	.	.	.	.	.	4f	.
=89	=89	=89	=89	=89	=89	=89	=89
1B-	Je-	1.d	O	0B-	-cis	1f	-cis,
1G	-su	.	.	.	.	1b-	O
.	.	2e	.	.	.	.	.
=90	=90	=90	=90	=90	=90	=90	=90
1.d	dul-	1.f	Je-	0r	.	1b-	Je-
.	.	.	.	.	.	1a	-su
2c	.	2e	-su	.	.	.	.
=91	=91	=91	=91	=91	=91	=91	=91
2B-	.	2d	dul-	0r	.	2g	dul-
2A	.	2c	.	.	.	1a	.
1d	.	1B-	.	.	.	.	.
.	.	.	.	.	.	2g	.
!!pagebreak:original
=92	=92	=92	=92	=92	=92	=92	=92
1c	.	1.A	.	0r	.	[0a	-cis
[1A	.	.	.	.	.	.	.
.	.	4G	.	.	.	.	.
.	.	4F	.	.	.	.	.
=93	=93	=93	=93	=93	=93	=93	=93
2A]	.	0F	-cis	1r	.	0a]	.
4G	.	.	.	.	.	.	.
4F	.	.	.	.	.	.	.
1F	-cis	.	.	1c	O	.	.
=94	=94	=94	=94	=94	=94	=94	=94
0r	.	1r	.	1d	Je-	1r	.
.	.	1d	O	1d	-su	1f	O
=95	=95	=95	=95	=95	=95	=95	=95
0r	.	1c	Je-	1.e	pi-	1g	Je-
.	.	1c	-su	.	.	1g	-su
.	.	.	.	4d	.	.	.
.	.	.	.	4c	.	.	.
=96	=96	=96	=96	=96	=96	=96	=96
1r	.	0A	-pi-	0c	-e,	1.a	pi-
1F	O	.	.	.	.	.	.
.	.	.	.	.	.	4g	.
.	.	.	.	.	.	4f	.
=97	=97	=97	=97	=97	=97	=97	=97
1B-	Je-	0B-	-e	1.d	O	1f	-e,
1G	-su	.	.	.	.	1b-	O
.	.	.	.	2e	.	.	.
=98	=98	=98	=98	=98	=98	=98	=98
1.d	pi-	0r	.	1.f	Je-	1b-	Je-
.	.	.	.	.	.	1a	-su
2c	.	.	.	2e	-su	.	.
=99	=99	=99	=99	=99	=99	=99	=99
2B-	.	0r	.	2d	pi-	2g	pi-
2A	.	.	.	2c	.	1a	.
1d	.	.	.	1B-	.	.	.
.	.	.	.	.	.	2g	.
!!linebreak:original
=100	=100	=100	=100	=100	=100	=100	=100
1c	.	2r	.	1.A	.	[0a	-e
.	.	2A	O	.	.	.	.
[1A	.	2A	Je-	.	.	.	.
.	.	2A	-su	4G	.	.	.
.	.	.	.	4F	.	.	.
=101	=101	=101	=101	=101	=101	=101	=101
2A]	.	1c	fi-	0F	-e	0a_	.
4G	.	.	.	.	.	.	.
4F	.	.	.	.	.	.	.
1F	-e	2c	-li	.	.	.	.
.	.	2c	Ma-	.	.	.	.
=102	=102	=102	=102	=102	=102	=102	=102
2r	.	0d	-ri-	0r	.	0a_	.
2D	O	.	.	.	.	.	.
2D	Je-	.	.	.	.	.	.
2D	-su	.	.	.	.	.	.
=103	=103	=103	=103	=103	=103	=103	=103
1F	fi-	1.c	.	0r	.	0a]	.
2F	-li	.	.	.	.	.	.
2F	Ma-	4B-	.	.	.	.	.
.	.	4A	.	.	.	.	.
=104	=104	=104	=104	=104	=104	=104	=104
0G	ri-	0B-	.	2r	.	0r	.
.	.	.	.	2d	O	.	.
.	.	.	.	2d	Je-	.	.
.	.	.	.	2d	-su	.	.
=105	=105	=105	=105	=105	=105	=105	=105
1.F	.	0A	-æ	1f	fi-	2r	.
.	.	.	.	.	.	2a	O
.	.	.	.	2f	-li	2a	Je-
4E	.	.	.	2f	Ma-	2a	-su
4D	.	.	.	.	.	.	.
=106	=106	=106	=106	=106	=106	=106	=106
0E	-æ	2r	.	0g	-ri-	1cc	fi-
.	.	2G	O	.	.	.	.
.	.	2G	Je-	.	.	2cc	-li
.	.	2G	-su	.	.	2cc	Ma-
!!linebreak:original
=107	=107	=107	=107	=107	=107	=107	=107
2r	.	1B-	fi-	[0f	.	0dd	-ri-
2D	O	.	.	.	.	.	.
2D	Je-	2A	-li	.	.	.	.
2D	-su	2A	Ma-	.	.	.	.
=108	=108	=108	=108	=108	=108	=108	=108
1F	fi-	0A	ri-	0f]	.	1.cc	.
2F	-li	.	.	.	.	.	.
2F	Ma-	.	.	.	.	4b-	.
.	.	.	.	.	.	4a	.
=109	=109	=109	=109	=109	=109	=109	=109
1G	ri-	1G	.	[0d	.	1b-	.
1A	.	1F	.	.	.	[1a	.
=110	=110	=110	=110	=110	=110	=110	=110
0G	.	0B-	.	0d]	.	2a]	.
.	.	.	.	.	.	4g	.
.	.	.	.	.	.	4f	.
.	.	.	.	.	.	1g	.
=111	=111	=111	=111	=111	=111	=111	=111
1c	.	[0A	-æ	1.e	.	[0a	-æ
[1A	.	.	.	.	.	.	.
.	.	.	.	2c	.	.	.
=112	=112	=112	=112	=112	=112	=112	=112
2A]	.	0A]	.	0c	-æ	0a]	.
2F	.	.	.	.	.	.	.
1F	-æ	.	.	.	.	.	.
=113	=113	=113	=113	=113	=113	=113	=113
0D	Mi-	0A	Mi-	0d	Mi-	1r	.
.	.	.	.	.	.	1f	Mi-
=114	=114	=114	=114	=114	=114	=114	=114
0C	-se-	0c	-se-	0e	-se-	1g	-se-
.	.	.	.	.	.	1a	.
!!linebreak:original
=115	=115	=115	=115	=115	=115	=115	=115
[0BB-	-re-	[0d	-re-	[0f	-re-	[0b-	-re
=116	=116	=116	=116	=116	=116	=116	=116
1BB-]	.	1d]	.	1f]	.	1b-]	.
1F	-re	1c	-re	1f	-re	1a	-re
=117	=117	=117	=117	=117	=117	=117	=117
0C	no-	0c	no-	0e	no-	0g	no-
=118	=118	=118	=118	=118	=118	=118	=118
0C	-bis	0c	-bis	0e	-bis	0g	-bis
=119	=119	=119	=119	=119	=119	=119	=119
[0F	A-	[0c	A-	[0f	A-	[0f	A-
=120	=120	=120	=120	=120	=120	=120	=120
0F]	.	0c]	.	0f]	.	0f]	.
=121	=121	=121	=121	=121	=121	=121	=121
[0F	-men	[0c	-men	[0f	-men	[0f	-men
=122	=122	=122	=122	=122	=122	=122	=122
0F]	.	0c]	.	0f]	.	0f]	.
==	==	==	==	==	==	==	==
*-	*-	*-	*-	*-	*-	*-	*-
!!!system-decoration: [([(s1,s2,s3,s4)])]
